X: 24758
T: Madra Mor Madra Beag
R: hornpipe
M: 4/4
K: Dmajor
|:(3ABc|d>AF>E D>BA>F|A>FE>^D E>cB>A|c>BA>F G>cB>G|A>B (3AGF E>AB>c|
d2 A>F D>BA>F|A>FE>^D E2 (3cBA|c>BA>F G>FE>c|(3ded D2 D2:|
|:A>G|F>Ad>A F>Ad>A|(3GAB e>d c>BA>G|F>Ad>A F>Ad>A|(3EFG c>B (3ABA (3GFE|
F>Ad>A (3FGA d>A|G>B (3fed c>B (3BAG|F>Ad>f e>AB>c|d>AF>E D2:|
|:(3GFE|F>Df>F e>Ed>D|G4- G2 (3GFE|F>Df>F e>Ed>D|E4- E2 (3GFE|
F>Df>F e>Ed>D|G4- G2 F>E|F>Ad>A B>ge>c|d>f (3edc d2:|

